X: 92
T: POLKA: Neilí
T: Ó Neilí, Neilí an Fuacht
C: C: Trad.; S: Brendan & Séamus Begley
C: Set Leaders: Tania, Anton, Sophie
Z: Anton Zille ed., Oleg Naumov arr.; Alistair Cassidy at The Session
N: https://thesession.org/members/26966/sets/92029
R: Polka
M: 2/4
L: 1/8
Q: 1/4=140
K: Amix
|:"A"ed cA|"A"ed cA|"A"Ac ef|"G"ge dc|
"A"ed cA|"A"ed cA|"A"Ac ef|"G"ge d2:||
|:"A"ef ge|"A"ed cA|"A"ef ge|"G"eA d2|
"A"ef ge|"A"ed cA|"G"Ac ef|1 "Em"ge d2:|2 "Em"ge ag||
|:"D"f2 fg|"A"ed cA|"D"f2 fg|"G"ec "A"de|
"D"f2 fg|"A"ed "G"cA|"Asus4"Ac ef|"Asus4"ge "G"d2:||

